dist/svg/u1F4BA.svg

<?xml version="1.0" encoding="UTF-8"?><svg id="a" xmlns="http://www.w3.org/2000/svg" viewBox="0 0 40 40"><rect y="0" width="40" height="40" fill="none"/><g><g><path d="M6.909,32.151h6.465v2.183c0,.92-.747,1.667-1.667,1.667h-3.131c-.92,0-1.667-.747-1.667-1.667v-2.183h0Z" fill="#333d4b"/><path d="M26.637,32.151h6.465v2.183c0,.92-.747,1.667-1.667,1.667h-3.131c-.92,0-1.667-.747-1.667-1.667v-2.183h0Z" fill="#333d4b"/></g><path d="M32.073,25.283H7.936c-.568,0-1.027-.461-1.027-1.029V10.693c0-3.694,2.995-6.693,6.693-6.693h12.808c3.696,0,6.693,2.998,6.693,6.693v13.562c0,.568-.461,1.029-1.029,1.029" fill="#8b8bf4" fill-rule="evenodd"/><path d="M33.105,13.284c-.084,0-.159,.019-.241,.025-.079-.006-.158-.025-.238-.025-1.744,0-3.156,1.412-3.156,3.154v6.98c0,.412-.333,.744-.744,.744H11.285c-.412,0-.744-.333-.744-.744v-6.98c0-1.742-1.412-3.154-3.154-3.154-.084,0-.159,.019-.241,.025-.08-.006-.158-.025-.24-.025h-2.559c-1.547,0-2.605,1.057-2.854,2.582-.277,1.705,.463,3.209,2.013,3.552,.398,.088,.678,.441,.681,.848l.045,2.989v7.178c0,.953,.774,1.727,1.727,1.727h28.095c.955,0,1.728-.774,1.728-1.727v-7.178l.045-2.989c.003-.407,.283-.76,.681-.848,1.55-.343,2.279-1.847,2.002-3.552-.249-1.525-1.296-2.582-2.844-2.582h-2.559Z" fill="#786de7" fill-rule="evenodd"/></g></svg>

<svg id="Layer_1" data-name="Layer 1" xmlns="http://www.w3.org/2000/svg" viewBox="0 0 40 40"><defs><style>.cls-1{fill:none;}.cls-2{fill:#333d4b;}.cls-3{fill:#8b8bf4;}.cls-3,.cls-4{fill-rule:evenodd;}.cls-4{fill:#786de7;}</style></defs><rect class="cls-1" width="40" height="40"/><path class="cls-2" d="M6.909,32.151h6.465a0,0,0,0,1,0,0v2.183A1.667,1.667,0,0,1,11.707,36H8.575a1.667,1.667,0,0,1-1.667-1.667V32.151A0,0,0,0,1,6.909,32.151Z"/><path class="cls-2" d="M26.637,32.151H33.1a0,0,0,0,1,0,0v2.183A1.667,1.667,0,0,1,31.436,36H28.3a1.667,1.667,0,0,1-1.667-1.667V32.151A0,0,0,0,1,26.637,32.151Z"/><path class="cls-3" d="M32.073,25.283H7.936a1.028,1.028,0,0,1-1.027-1.029V10.693A6.693,6.693,0,0,1,13.6,4H26.41A6.694,6.694,0,0,1,33.1,10.693V24.254a1.029,1.029,0,0,1-1.029,1.029"/><path class="cls-4" d="M33.1,13.284c-.084,0-.159.018-.241.024s-.158-.024-.239-.024a3.155,3.155,0,0,0-3.156,3.154v6.98a.743.743,0,0,1-.744.745H11.285a.744.744,0,0,1-.744-.745v-6.98a3.155,3.155,0,0,0-3.155-3.154c-.083,0-.159.018-.241.024s-.158-.024-.24-.024H4.346a2.841,2.841,0,0,0-2.854,2.582c-.277,1.7.463,3.208,2.013,3.552a.874.874,0,0,1,.681.847l.044,2.99v7.178a1.727,1.727,0,0,0,1.727,1.726h28.1a1.727,1.727,0,0,0,1.728-1.726V23.255l.045-2.99a.872.872,0,0,1,.68-.847c1.551-.344,2.279-1.848,2-3.552a2.831,2.831,0,0,0-2.843-2.582Z"/></svg>
